;FLAVOR:Marlin
;TIME:1615
;Filament used: 0.665074m
;Layer height: 0.2
;MINX:96.686
;MINY:105.7
;MINZ:0.2
;MAXX:138.31
;MAXY:129.3
;MAXZ:11
;Generated with Cura_SteamEngine 4.6.1
M140 S60
M105
M190 S60
M104 S200
M105
M109 S200
M82 ;absolute extrusion mode
; Ender 3 Custom Start G-code
G92 E0 ; Reset Extruder
G28 ; Home all axes
G1 Z2.0 F3000 ; Move Z Axis up little to prevent scratching of Heat Bed
G1 X0.1 Y20 Z0.3 F5000.0 ; Move to start position
G1 X0.1 Y200.0 Z0.3 F1500.0 E15 ; Draw the first line
G1 X0.4 Y200.0 Z0.3 F5000.0 ; Move to side a little
G1 X0.4 Y20 Z0.3 F1500.0 E30 ; Draw the second line
G92 E0 ; Reset Extruder
G1 Z2.0 F3000 ; Move Z Axis up little to prevent scratching of Heat Bed
G1 X5 Y20 Z0.3 F5000.0 ; Move over to prevent blob squish
G92 E0
G92 E0
G1 F3600 E-5
;LAYER_COUNT:55
;LAYER:0
M107
G0 F6000 X100.633 Y108.693 Z0.2
;TYPE:SKIRT
G1 F3600 E0
G1 F1200 X100.903 Y108.46 E0.01186
G1 X101.432 Y108.042 E0.03429
G1 X101.72 Y107.834 E0.0461
G1 X102.281 Y107.465 E0.06844
G1 X102.58 Y107.286 E0.08003
G1 X103.206 Y106.948 E0.10369
G1 X103.518 Y106.798 E0.1152
G1 X104.119 Y106.54 E0.13696
G1 X104.439 Y106.418 E0.14835
G1 X105.057 Y106.211 E0.17002
G1 X105.376 Y106.119 E0.18107
G1 X105.998 Y105.967 E0.20236
G1 X106.321 Y105.902 E0.21332
G1 X106.95 Y105.802 E0.2345
G1 X107.265 Y105.765 E0.24505
G1 X107.941 Y105.716 E0.2676
G1 X108.575 Y105.7 E0.28869
G1 X113.526 Y105.7 E0.45336
G1 X114.315 Y105.74 E0.47964
G1 X114.906 Y105.823 E0.49949
G1 X115.123 Y105.862 E0.50682
G1 X115.752 Y106.008 E0.5283
G1 X115.834 Y105.982 E0.53116
G1 X116.606 Y105.819 E0.5574
G1 X117.391 Y105.735 E0.58366
G1 X117.807 Y105.723 E0.5975
G1 X126.496 Y105.7 E0.8865
G1 X126.852 Y105.707 E0.89834
G1 X127.201 Y105.722 E0.90996
G1 X127.914 Y105.786 E0.93377
G1 X128.29 Y105.837 E0.94639
G1 X129.008 Y105.969 E0.97067
G1 X129.378 Y106.055 E0.98331
G1 X130.12 Y106.266 E1.00896
G1 X130.494 Y106.393 E1.0221
G1 X131.197 Y106.671 E1.04724
G1 X131.56 Y106.835 E1.06049
G1 X132.274 Y107.203 E1.08721
G1 X132.626 Y107.408 E1.10076
G1 X133.299 Y107.847 E1.12748
G1 X133.632 Y108.09 E1.14119
G1 X134.258 Y108.599 E1.16803
G1 X134.564 Y108.875 E1.18173
G1 X135.122 Y109.431 E1.20793
G1 X135.4 Y109.738 E1.22171
G1 X135.903 Y110.355 E1.24819
G1 X136.147 Y110.687 E1.26189
G1 X136.602 Y111.381 E1.28949
G1 X136.807 Y111.733 E1.30304
G1 X137.167 Y112.429 E1.3291
G1 X137.333 Y112.794 E1.34244
G1 X137.613 Y113.497 E1.36761
G1 X137.74 Y113.868 E1.38065
G1 X137.947 Y114.584 E1.40544
G1 X138.036 Y114.957 E1.41819
G1 X138.176 Y115.699 E1.44331
G1 X138.227 Y116.068 E1.4557
G1 X138.291 Y116.771 E1.47917
G1 X138.308 Y117.134 E1.49126
G1 X138.31 Y117.832 E1.51448
G1 X138.295 Y118.183 E1.52616
G1 X138.231 Y118.901 E1.55014
G1 X138.18 Y119.276 E1.56272
G1 X138.046 Y120.001 E1.58725
G1 X137.959 Y120.373 E1.59995
G1 X137.754 Y121.094 E1.62488
G1 X137.629 Y121.464 E1.63787
G1 X137.347 Y122.18 E1.66347
G1 X137.182 Y122.545 E1.67679
G1 X136.814 Y123.257 E1.70345
G1 X136.609 Y123.609 E1.717
G1 X136.17 Y124.282 E1.74372
G1 X135.927 Y124.615 E1.75743
G1 X135.418 Y125.241 E1.78427
G1 X135.142 Y125.547 E1.79797
G1 X134.586 Y126.105 E1.82417
G1 X134.279 Y126.383 E1.83795
G1 X133.656 Y126.89 E1.86466
G1 X133.322 Y127.135 E1.87844
G1 X132.637 Y127.585 E1.9057
G1 X132.287 Y127.789 E1.91918
G1 X131.588 Y128.15 E1.94534
G1 X131.223 Y128.316 E1.95868
G1 X130.526 Y128.594 E1.98364
G1 X130.153 Y128.722 E1.99675
G1 X129.421 Y128.933 E2.02209
G1 X129.05 Y129.021 E2.03477
G1 X128.312 Y129.159 E2.05974
G1 X127.941 Y129.21 E2.0722
G1 X127.245 Y129.274 E2.09545
G1 X126.883 Y129.291 E2.1075
G1 X126.517 Y129.3 E2.11968
G1 X118.072 Y129.3 E2.40056
G1 X117.031 Y129.23 E2.43526
G1 X116.823 Y129.202 E2.44224
G1 X116.047 Y129.057 E2.4685
G1 X115.794 Y128.986 E2.47724
G1 X115.591 Y129.048 E2.4843
G1 X114.816 Y129.201 E2.51057
G1 X113.716 Y129.283 E2.54726
G1 X108.508 Y129.3 E2.72048
G1 X108.148 Y129.293 E2.73245
G1 X107.799 Y129.278 E2.74407
G1 X107.076 Y129.213 E2.76822
G1 X106.696 Y129.161 E2.78097
G1 X105.973 Y129.027 E2.80543
G1 X105.602 Y128.94 E2.8181
G1 X104.869 Y128.73 E2.84346
G1 X104.496 Y128.603 E2.85657
G1 X103.781 Y128.319 E2.88216
G1 X103.416 Y128.153 E2.89549
G1 X102.717 Y127.792 E2.92166
G1 X102.367 Y127.588 E2.93514
G1 X101.694 Y127.147 E2.9619
G1 X101.36 Y126.903 E2.97565
G1 X100.725 Y126.387 E3.00287
G1 X100.418 Y126.109 E3.01664
G1 X99.871 Y125.562 E3.04237
G1 X99.594 Y125.256 E3.0561
G1 X99.076 Y124.619 E3.08341
G1 X98.833 Y124.286 E3.09712
G1 X98.394 Y123.613 E3.12385
G1 X98.189 Y123.261 E3.13739
G1 X97.829 Y122.565 E3.16346
G1 X97.663 Y122.2 E3.17679
G1 X97.373 Y121.468 E3.20298
G1 X97.248 Y121.098 E3.21597
G1 X97.052 Y120.416 E3.23957
G1 X96.963 Y120.044 E3.25229
G1 X96.819 Y119.271 E3.27845
G1 X96.769 Y118.9 E3.2909
G1 X96.707 Y118.207 E3.31404
G1 X96.691 Y117.85 E3.32592
G1 X96.686 Y117.295 E3.34438
G1 X96.691 Y117.106 E3.35067
G1 X96.752 Y116.318 E3.37696
G1 X96.801 Y116.048 E3.38609
G1 X96.857 Y115.502 E3.40434
G1 X97.002 Y114.784 E3.4287
G1 X97.081 Y114.47 E3.43947
G1 X97.261 Y113.859 E3.46066
G1 X97.372 Y113.533 E3.47211
G1 X97.612 Y112.917 E3.4941
G1 X97.75 Y112.602 E3.50554
G1 X98.066 Y111.961 E3.52931
G1 X98.235 Y111.655 E3.54094
G1 X98.59 Y111.074 E3.56358
G1 X98.787 Y110.781 E3.57532
G1 X99.186 Y110.239 E3.59771
G1 X99.41 Y109.961 E3.60958
G1 X99.838 Y109.473 E3.63117
G1 X100.083 Y109.216 E3.64298
G1 X100.633 Y108.693 E3.66823
G0 F6000 X100.894 Y108.996
G1 F1200 X101.164 Y108.763 E3.68009
G1 X101.666 Y108.366 E3.70137
G1 X101.954 Y108.158 E3.71319
G1 X102.486 Y107.808 E3.73437
G1 X102.785 Y107.629 E3.74596
G1 X103.38 Y107.309 E3.76843
G1 X103.692 Y107.159 E3.77995
G1 X104.262 Y106.913 E3.80059
G1 X104.582 Y106.791 E3.81199
G1 X105.167 Y106.596 E3.83249
G1 X105.486 Y106.504 E3.84354
G1 X106.077 Y106.359 E3.86378
G1 X106.4 Y106.294 E3.87474
G1 X106.997 Y106.2 E3.89484
G1 X107.312 Y106.163 E3.90539
G1 X107.953 Y106.115 E3.92676
G1 X108.575 Y106.1 E3.94746
G1 X113.526 Y106.1 E4.11213
G1 X114.294 Y106.14 E4.13771
G1 X114.835 Y106.217 E4.15588
G1 X115.052 Y106.256 E4.16322
G1 X115.768 Y106.423 E4.18767
G1 X115.955 Y106.364 E4.19419
G1 X116.708 Y106.208 E4.21977
G1 X117.808 Y106.123 E4.25646
G1 X126.497 Y106.1 E4.54546
G1 X126.835 Y106.107 E4.55671
G1 X127.184 Y106.122 E4.56832
G1 X127.861 Y106.182 E4.59093
G1 X128.237 Y106.233 E4.60355
G1 X128.917 Y106.358 E4.62655
G1 X129.287 Y106.444 E4.63918
G1 X129.991 Y106.645 E4.66353
G1 X130.365 Y106.772 E4.67667
G1 X131.033 Y107.035 E4.70055
G1 X131.396 Y107.199 E4.71379
G1 X132.073 Y107.548 E4.73913
G1 X132.425 Y107.753 E4.75268
G1 X133.063 Y108.17 E4.77803
G1 X133.396 Y108.413 E4.79174
G1 X133.99 Y108.896 E4.8172
G1 X134.296 Y109.172 E4.83091
G1 X134.825 Y109.7 E4.85577
G1 X135.103 Y110.007 E4.86954
G1 X135.581 Y110.592 E4.89467
G1 X135.825 Y110.924 E4.90837
G1 X136.257 Y111.582 E4.93455
G1 X136.462 Y111.934 E4.9481
G1 X136.803 Y112.594 E4.97281
G1 X136.969 Y112.959 E4.98614
G1 X137.234 Y113.626 E5.01002
G1 X137.361 Y113.997 E5.02306
G1 X137.558 Y114.677 E5.04661
G1 X137.647 Y115.05 E5.05936
G1 X137.779 Y115.754 E5.08318
G1 X137.83 Y116.123 E5.09557
G1 X137.892 Y116.79 E5.11785
G1 X137.909 Y117.153 E5.12994
G1 X137.91 Y117.815 E5.15196
G1 X137.895 Y118.166 E5.16364
G1 X137.834 Y118.847 E5.18638
G1 X137.783 Y119.222 E5.19897
G1 X137.657 Y119.91 E5.22223
G1 X137.57 Y120.282 E5.23494
G1 X137.375 Y120.965 E5.25857
G1 X137.25 Y121.335 E5.27155
G1 X136.982 Y122.015 E5.29586
G1 X136.817 Y122.38 E5.30919
G1 X136.469 Y123.056 E5.33448
G1 X136.264 Y123.408 E5.34802
G1 X135.847 Y124.046 E5.37337
G1 X135.604 Y124.379 E5.38709
G1 X135.121 Y124.973 E5.41255
G1 X134.845 Y125.279 E5.42626
G1 X134.317 Y125.808 E5.45111
G1 X134.01 Y126.086 E5.46489
G1 X133.42 Y126.568 E5.49023
G1 X133.086 Y126.813 E5.50401
G1 X132.435 Y127.239 E5.52988
G1 X132.085 Y127.443 E5.54336
G1 X131.423 Y127.786 E5.56815
G1 X131.058 Y127.952 E5.58149
G1 X130.396 Y128.215 E5.60518
G1 X130.023 Y128.343 E5.6183
G1 X129.329 Y128.544 E5.64233
G1 X128.958 Y128.632 E5.65501
G1 X128.258 Y128.763 E5.6787
G1 X127.887 Y128.814 E5.69115
G1 X127.226 Y128.875 E5.71323
G1 X126.864 Y128.892 E5.72529
G1 X126.517 Y128.9 E5.73683
G1 X118.072 Y128.9 E6.01771
G1 X117.085 Y128.834 E6.05061
G1 X116.877 Y128.806 E6.05759
G1 X116.121 Y128.664 E6.08318
G1 X115.788 Y128.57 E6.09469
G1 X115.474 Y128.665 E6.1056
G1 X114.719 Y128.811 E6.13117
G1 X113.715 Y128.883 E6.16465
G1 X108.507 Y128.9 E6.33787
G1 X108.165 Y128.893 E6.34925
G1 X107.816 Y128.878 E6.36087
G1 X107.131 Y128.817 E6.38374
G1 X106.751 Y128.765 E6.3965
G1 X106.065 Y128.638 E6.4197
G1 X105.694 Y128.551 E6.43238
G1 X104.998 Y128.351 E6.45646
G1 X104.625 Y128.224 E6.46957
G1 X103.946 Y127.955 E6.49386
G1 X103.581 Y127.789 E6.5072
G1 X102.919 Y127.446 E6.53199
G1 X102.569 Y127.242 E6.54547
G1 X101.93 Y126.824 E6.57087
G1 X101.596 Y126.58 E6.58462
G1 X100.994 Y126.09 E6.61044
G1 X100.687 Y125.812 E6.62421
G1 X100.168 Y125.293 E6.64863
G1 X99.891 Y124.987 E6.66236
G1 X99.399 Y124.383 E6.68827
G1 X99.156 Y124.05 E6.70198
G1 X98.739 Y123.412 E6.72733
G1 X98.534 Y123.06 E6.74088
G1 X98.193 Y122.4 E6.76558
G1 X98.027 Y122.035 E6.77892
G1 X97.752 Y121.339 E6.80381
G1 X97.627 Y120.969 E6.8168
G1 X97.441 Y120.323 E6.83916
G1 X97.352 Y119.951 E6.85188
G1 X97.215 Y119.217 E6.87672
G1 X97.165 Y118.846 E6.88917
G1 X97.106 Y118.189 E6.91111
G1 X97.09 Y117.832 E6.92299
G1 X97.086 Y117.305 E6.94052
G1 X97.091 Y117.116 E6.94681
G1 X97.151 Y116.35 E6.97236
G1 X97.193 Y116.119 E6.98017
G1 X97.199 Y115.989 E6.9845
G1 X97.39 Y114.881 E7.0219
G1 X97.469 Y114.567 E7.03267
G1 X97.64 Y113.988 E7.05275
G1 X97.751 Y113.662 E7.0642
G1 X97.978 Y113.078 E7.08504
G1 X98.116 Y112.763 E7.09648
G1 X98.416 Y112.154 E7.11906
G1 X98.585 Y111.848 E7.13069
G1 X98.922 Y111.297 E7.15217
G1 X99.119 Y111.004 E7.16391
G1 X99.498 Y110.49 E7.18515
G1 X99.722 Y110.212 E7.19703
G1 X100.128 Y109.749 E7.21751
G1 X100.373 Y109.492 E7.22932
G1 X100.894 Y108.996 E7.25324
G0 F6000 X101.156 Y109.298
G1 F1200 X101.426 Y109.065 E7.2651
G1 X101.901 Y108.69 E7.28523
G1 X102.189 Y108.482 E7.29705
G1 X102.691 Y108.151 E7.31705
G1 X102.99 Y107.972 E7.32864
G1 X103.553 Y107.669 E7.3499
G1 X103.865 Y107.519 E7.36142
G1 X104.404 Y107.287 E7.38094
G1 X104.724 Y107.165 E7.39233
G1 X105.278 Y106.98 E7.41175
G1 X105.597 Y106.888 E7.42279
G1 X106.156 Y106.752 E7.44193
G1 X106.479 Y106.687 E7.45289
G1 X107.043 Y106.597 E7.47188
G1 X107.358 Y106.56 E7.48243
G1 X107.965 Y106.515 E7.50268
G1 X108.575 Y106.5 E7.52297
G1 X113.526 Y106.5 E7.68764
G1 X114.273 Y106.54 E7.71252
G1 X114.764 Y106.61 E7.72902
G1 X114.981 Y106.649 E7.73635
G1 X115.709 Y106.821 E7.76123
G1 X115.769 Y106.843 E7.76336
G1 X116.076 Y106.746 E7.77407
G1 X116.809 Y106.597 E7.79895
G1 X117.809 Y106.523 E7.8323
G1 X126.498 Y106.5 E8.12129
G1 X126.818 Y106.506 E8.13194
G1 X127.167 Y106.521 E8.14356
G1 X127.807 Y106.579 E8.16493
G1 X128.183 Y106.63 E8.17755
G1 X128.827 Y106.748 E8.19933
G1 X129.197 Y106.834 E8.21196
G1 X129.863 Y107.024 E8.235
G1 X130.237 Y107.151 E8.24813
G1 X130.868 Y107.4 E8.2707
G1 X131.231 Y107.564 E8.28395
G1 X131.872 Y107.894 E8.30792
G1 X132.224 Y108.099 E8.32147
G1 X132.827 Y108.493 E8.34543
G1 X133.16 Y108.736 E8.35914
G1 X133.722 Y109.193 E8.38323
G1 X134.028 Y109.469 E8.39694
G1 X134.529 Y109.968 E8.42046
G1 X134.807 Y110.275 E8.43423
G1 X135.259 Y110.829 E8.45801
G1 X135.503 Y111.161 E8.47172
G1 X135.911 Y111.783 E8.49646
G1 X136.116 Y112.135 E8.51001
G1 X136.439 Y112.76 E8.53341
G1 X136.605 Y113.125 E8.54674
G1 X136.856 Y113.756 E8.56933
G1 X136.983 Y114.127 E8.58237
G1 X137.169 Y114.769 E8.6046
G1 X137.258 Y115.142 E8.61736
G1 X137.383 Y115.809 E8.63993
G1 X137.434 Y116.178 E8.65232
G1 X137.492 Y116.809 E8.67339
G1 X137.509 Y117.172 E8.68548
G1 X137.511 Y117.798 E8.7063
G1 X137.496 Y118.149 E8.71799
G1 X137.438 Y118.793 E8.73949
G1 X137.387 Y119.168 E8.75208
G1 X137.267 Y119.819 E8.7741
G1 X137.18 Y120.191 E8.7868
G1 X136.996 Y120.837 E8.80914
G1 X136.871 Y121.207 E8.82213
G1 X136.618 Y121.85 E8.84512
G1 X136.453 Y122.215 E8.85844
G1 X136.123 Y122.855 E8.88239
G1 X135.918 Y123.207 E8.89594
G1 X135.524 Y123.81 E8.91989
G1 X135.281 Y124.143 E8.93361
G1 X134.824 Y124.705 E8.9577
G1 X134.548 Y125.011 E8.9714
G1 X134.049 Y125.512 E8.99492
G1 X133.742 Y125.79 E9.0087
G1 X133.183 Y126.245 E9.03267
G1 X132.849 Y126.49 E9.04645
G1 X132.234 Y126.894 E9.07092
G1 X131.884 Y127.098 E9.08439
G1 X131.257 Y127.422 E9.10787
G1 X130.892 Y127.588 E9.12121
G1 X130.266 Y127.837 E9.14361
G1 X129.893 Y127.965 E9.15673
G1 X129.237 Y128.155 E9.17944
G1 X128.866 Y128.243 E9.19213
G1 X128.203 Y128.367 E9.21456
G1 X127.832 Y128.418 E9.22702
G1 X127.207 Y128.475 E9.24789
G1 X126.845 Y128.492 E9.25994
G1 X126.517 Y128.5 E9.27086
G1 X118.072 Y128.5 E9.55174
G1 X117.138 Y128.437 E9.58287
G1 X116.93 Y128.409 E9.58985
G1 X116.195 Y128.27 E9.61473
G1 X115.783 Y128.153 E9.62898
G1 X115.358 Y128.282 E9.64375
G1 X114.623 Y128.421 E9.66863
G1 X113.714 Y128.483 E9.69893
G1 X108.506 Y128.5 E9.87215
G1 X108.182 Y128.494 E9.88293
G1 X107.833 Y128.479 E9.89455
G1 X107.185 Y128.42 E9.91619
G1 X106.805 Y128.368 E9.92895
G1 X106.156 Y128.248 E9.9509
G1 X105.785 Y128.161 E9.96357
G1 X105.127 Y127.972 E9.98634
G1 X104.754 Y127.845 E9.99945
G1 X104.112 Y127.591 E10.02241
G1 X103.747 Y127.425 E10.03575
G1 X103.12 Y127.101 E10.05922
G1 X102.77 Y126.897 E10.0727
G1 X102.166 Y126.501 E10.09672
G1 X101.832 Y126.257 E10.11048
G1 X101.262 Y125.794 E10.1349
G1 X100.955 Y125.516 E10.14868
G1 X100.464 Y125.025 E10.17177
G1 X100.187 Y124.719 E10.1855
G1 X99.722 Y124.147 E10.21002
G1 X99.479 Y123.814 E10.22373
G1 X99.085 Y123.211 E10.24769
G1 X98.88 Y122.859 E10.26123
G1 X98.557 Y122.234 E10.28463
G1 X98.391 Y121.869 E10.29797
G1 X98.131 Y121.211 E10.3215
G1 X98.006 Y120.841 E10.33449
G1 X97.83 Y120.23 E10.35564
G1 X97.741 Y119.858 E10.36836
G1 X97.612 Y119.164 E10.39184
G1 X97.562 Y118.793 E10.40429
G1 X97.506 Y118.171 E10.42506
G1 X97.49 Y117.814 E10.43695
G1 X97.485 Y117.316 E10.45351
G1 X97.49 Y117.127 E10.4598
G1 X97.55 Y116.381 E10.48469
G1 X97.598 Y116.125 E10.49336
G1 X97.636 Y115.7 E10.50755
G1 X97.778 Y114.979 E10.53199
G1 X97.857 Y114.665 E10.54276
G1 X98.019 Y114.117 E10.56177
G1 X98.13 Y113.791 E10.57322
G1 X98.344 Y113.238 E10.59294
G1 X98.482 Y112.923 E10.60438
G1 X98.766 Y112.348 E10.62571
G1 X98.935 Y112.042 E10.63734
G1 X99.254 Y111.52 E10.65768
G1 X99.451 Y111.227 E10.66943
G1 X99.809 Y110.741 E10.6895
G1 X100.033 Y110.463 E10.70138
G1 X100.417 Y110.025 E10.72075
G1 X100.662 Y109.768 E10.73256
G1 X101.156 Y109.298 E10.75524
G0 F6000 X101.417 Y109.601
G1 F1200 X101.687 Y109.368 E10.7671
G1 X102.135 Y109.015 E10.78607
G1 X102.423 Y108.807 E10.79789
G1 X102.897 Y108.494 E10.81678
G1 X103.196 Y108.315 E10.82837
G1 X103.726 Y108.03 E10.84839
G1 X104.038 Y107.88 E10.8599
G1 X104.547 Y107.661 E10.87833
G1 X104.867 Y107.539 E10.88972
G1 X105.389 Y107.364 E10.90803
G1 X105.708 Y107.272 E10.91907
G1 X106.235 Y107.144 E10.93711
G1 X106.558 Y107.079 E10.94807
G1 X107.09 Y106.994 E10.96599
G1 X107.405 Y106.957 E10.97654
G1 X107.977 Y106.915 E10.99561
G1 X108.575 Y106.9 E11.01551
G1 X113.526 Y106.9 E11.18018
G1 X114.251 Y106.94 E11.20433
G1 X114.693 Y107.004 E11.21919
G1 X114.91 Y107.043 E11.22652
G1 X115.617 Y107.211 E11.25069
G1 X115.762 Y107.265 E11.25583
G1 X116.197 Y107.128 E11.271
G1 X116.909 Y106.987 E11.29514
G1 X117.811 Y106.923 E11.32522
G1 X126.5 Y106.9 E11.61422
G1 X126.8 Y106.906 E11.6242
G1 X127.149 Y106.921 E11.63582
G1 X127.753 Y106.975 E11.65599
G1 X128.129 Y107.026 E11.66861
G1 X128.736 Y107.137 E11.68913
G1 X129.106 Y107.223 E11.70176
G1 X129.734 Y107.402 E11.72348
G1 X130.108 Y107.529 E11.73662
G1 X130.703 Y107.764 E11.7579
G1 X131.066 Y107.928 E11.77115
G1 X131.671 Y108.24 E11.79379
G1 X132.023 Y108.445 E11.80734
G1 X132.591 Y108.817 E11.82992
G1 X132.924 Y109.06 E11.84363
G1 X133.454 Y109.49 E11.86633
G1 X133.76 Y109.766 E11.88004
G1 X134.232 Y110.237 E11.90221
G1 X134.51 Y110.544 E11.91599
G1 X134.936 Y111.065 E11.93837
G1 X135.18 Y111.397 E11.95208
G1 X135.565 Y111.984 E11.97542
G1 X135.77 Y112.336 E11.98897
