;FLAVOR:Marlin
;TIME:10860
;Filament used: 8.22885m
;Layer height: 0.2
;MINX:67.246
;MINY:67.246
;MINZ:0.2
;MAXX:167.754
;MAXY:167.754
;MAXZ:19.4
;Generated with Cura_SteamEngine 4.6.1
M140 S60
M105
M190 S60
M104 S210
M105
M109 S210
M82 ;absolute extrusion mode
; Ender 3 Custom Start G-code
G92 E0 ; Reset Extruder
G28 ; Home all axes
G1 Z2.0 F3000 ; Move Z Axis up little to prevent scratching of Heat Bed
G1 X0.1 Y20 Z0.3 F5000.0 ; Move to start position
G1 X0.1 Y200.0 Z0.3 F1500.0 E15 ; Draw the first line
G1 X0.4 Y200.0 Z0.3 F5000.0 ; Move to side a little
G1 X0.4 Y20 Z0.3 F1500.0 E30 ; Draw the second line
G92 E0 ; Reset Extruder
G1 Z2.0 F3000 ; Move Z Axis up little to prevent scratching of Heat Bed
G1 X5 Y20 Z0.3 F5000.0 ; Move over to prevent blob squish
G92 E0
G92 E0
G1 F3600 E-5
;LAYER_COUNT:97
;LAYER:0
M107
G0 F6000 X119.154 Y68.076 Z0.2
;TYPE:SKIRT
G1 F3600 E0
G1 F1200 X120.255 Y68.122 E0.03665
G1 X120.662 Y68.148 E0.05022
G1 X121.537 Y68.213 E0.0794
G1 X122.66 Y68.315 E0.1169
G1 X123.088 Y68.363 E0.13123
G1 X124.01 Y68.478 E0.16213
G1 X125.109 Y68.633 E0.19905
G1 X125.452 Y68.69 E0.21061
G1 X126.354 Y68.847 E0.24106
G1 X127.434 Y69.053 E0.27763
G1 X127.944 Y69.162 E0.29498
G1 X128.683 Y69.33 E0.32018
G1 X129.829 Y69.607 E0.3594
G1 X130.327 Y69.74 E0.37654
G1 X131.062 Y69.945 E0.40192
G1 X131.917 Y70.194 E0.43154
G1 X132.225 Y70.289 E0.44226
G1 X133.343 Y70.655 E0.48139
G1 X134.487 Y71.054 E0.52168
G1 X134.912 Y71.214 E0.53679
G1 X135.623 Y71.489 E0.56214
G1 X136.776 Y71.957 E0.60353
G1 X137.143 Y72.116 E0.61683
G1 X137.923 Y72.463 E0.64523
G1 X138.923 Y72.926 E0.68188
G1 X139.325 Y73.123 E0.69677
G1 X140.076 Y73.501 E0.72473
G1 X141.096 Y74.037 E0.76306
G1 X142.19 Y74.652 E0.8048
G1 X143.214 Y75.257 E0.84436
G1 X143.629 Y75.514 E0.86059
G1 X144.25 Y75.909 E0.88507
G1 X145.29 Y76.591 E0.92644
G1 X146.319 Y77.314 E0.96827
G1 X147.23 Y77.978 E1.00576
G1 X147.56 Y78.231 E1.01959
G1 X148.248 Y78.769 E1.04864
G1 X148.925 Y79.311 E1.07748
G1 X149.195 Y79.535 E1.08915
G1 X150.098 Y80.313 E1.12879
G1 X150.95 Y81.073 E1.16677
G1 X151.297 Y81.397 E1.18256
G1 X151.886 Y81.96 E1.20966
G1 X152.682 Y82.744 E1.24682
G1 X153.037 Y83.109 E1.26375
G1 X153.613 Y83.715 E1.29156
G1 X154.354 Y84.522 E1.328
G1 X154.625 Y84.83 E1.34165
G1 X155.201 Y85.498 E1.37098
G1 X155.924 Y86.366 E1.40856
G1 X156.19 Y86.699 E1.42273
G1 X156.749 Y87.417 E1.453
G1 X157.42 Y88.308 E1.49009
G1 X157.669 Y88.655 E1.5043
G1 X158.139 Y89.324 E1.53149
G1 X158.808 Y90.307 E1.57104
G1 X159.474 Y91.352 E1.61226
G1 X160.085 Y92.353 E1.65126
G1 X160.325 Y92.769 E1.66724
G1 X160.719 Y93.468 E1.69392
G1 X161.265 Y94.467 E1.73179
G1 X161.466 Y94.857 E1.74638
G1 X161.852 Y95.626 E1.775
G1 X162.346 Y96.652 E1.81288
G1 X162.517 Y97.03 E1.82667
G1 X162.859 Y97.804 E1.85482
G1 X163.319 Y98.89 E1.89405
G1 X163.466 Y99.258 E1.90723
G1 X163.785 Y100.089 E1.93683
G1 X164.162 Y101.113 E1.97313
G1 X164.567 Y102.329 E2.01575
G1 X165.031 Y103.845 E2.06848
G1 X165.264 Y104.692 E2.0977
G1 X165.551 Y105.799 E2.13574
G1 X165.652 Y106.231 E2.15049
G1 X165.836 Y107.053 E2.17851
G1 X166.057 Y108.121 E2.21479
G1 X166.144 Y108.591 E2.23068
G1 X166.297 Y109.479 E2.26065
G1 X166.462 Y110.537 E2.29627
G1 X166.521 Y110.971 E2.31084
G1 X166.631 Y111.874 E2.34109
G1 X166.746 Y112.958 E2.37735
G1 X166.782 Y113.397 E2.392
G1 X166.849 Y114.316 E2.42265
G1 X166.91 Y115.396 E2.45862
G1 X166.924 Y115.789 E2.4717
G1 X166.945 Y116.703 E2.50211
G1 X166.954 Y117.815 E2.5391
G1 X166.947 Y118.264 E2.55403
G1 X166.924 Y119.153 E2.58361
G1 X166.878 Y120.252 E2.6202
G1 X166.852 Y120.662 E2.63386
G1 X166.786 Y121.538 E2.66308
G1 X166.685 Y122.659 E2.70051
G1 X166.637 Y123.084 E2.71474
G1 X166.522 Y124.013 E2.74587
G1 X166.367 Y125.109 E2.78269
G1 X166.31 Y125.452 E2.79425
G1 X166.153 Y126.352 E2.82464
G1 X165.945 Y127.445 E2.86165
G1 X165.842 Y127.923 E2.87791
G1 X165.67 Y128.683 E2.90383
G1 X165.388 Y129.847 E2.94366
G1 X165.261 Y130.322 E2.96002
G1 X165.055 Y131.061 E2.98553
G1 X164.806 Y131.916 E3.01515
G1 X164.711 Y132.224 E3.02587
G1 X164.345 Y133.342 E3.065
G1 X163.95 Y134.476 E3.10494
G1 X163.786 Y134.912 E3.12043
G1 X163.511 Y135.623 E3.14579
G1 X163.058 Y136.742 E3.18594
G1 X162.883 Y137.147 E3.20061
G1 X162.536 Y137.927 E3.22901
G1 X162.069 Y138.934 E3.26593
G1 X161.498 Y140.076 E3.30839
G1 X160.949 Y141.122 E3.34768
G1 X160.773 Y141.441 E3.3598
G1 X160.34 Y142.205 E3.38901
G1 X159.752 Y143.2 E3.42745
G1 X159.483 Y143.635 E3.44446
G1 X159.068 Y144.288 E3.47019
G1 X158.44 Y145.245 E3.50827
G1 X158.188 Y145.609 E3.52299
G1 X157.682 Y146.326 E3.55218
G1 X157.022 Y147.23 E3.58941
G1 X156.769 Y147.56 E3.60324
G1 X156.224 Y148.255 E3.63261
G1 X155.503 Y149.147 E3.67076
G1 X154.685 Y150.1 E3.71253
G1 X153.917 Y150.96 E3.75088
G1 X153.609 Y151.29 E3.76589
G1 X153.053 Y151.872 E3.79267
G1 X152.237 Y152.702 E3.83138
G1 X151.934 Y152.996 E3.84542
G1 X151.314 Y153.585 E3.87386
G1 X150.153 Y154.641 E3.92606
G1 X149.507 Y155.197 E3.95441
G1 X148.622 Y155.935 E3.99274
G1 X148.275 Y156.211 E4.00748
G1 X147.583 Y156.749 E4.03664
G1 X146.692 Y157.42 E4.07374
G1 X146.345 Y157.669 E4.08794
G1 X145.669 Y158.145 E4.11544
G1 X144.712 Y158.795 E4.15392
G1 X144.32 Y159.049 E4.16945
G1 X143.633 Y159.483 E4.19648
G1 X142.629 Y160.095 E4.23559
G1 X142.26 Y160.309 E4.24978
G1 X141.512 Y160.731 E4.27834
G1 X140.556 Y161.252 E4.31455
G1 X140.117 Y161.479 E4.33099
G1 X139.374 Y161.852 E4.35864
G1 X138.344 Y162.348 E4.39667
G1 X137.199 Y162.858 E4.43836
G1 X136.115 Y163.317 E4.47751
G1 X135.683 Y163.488 E4.49296
G1 X134.932 Y163.777 E4.51973
G1 X133.861 Y164.17 E4.55767
G1 X133.405 Y164.326 E4.5737
G1 X132.667 Y164.568 E4.59953
G1 X131.512 Y164.928 E4.63977
G1 X130.311 Y165.264 E4.68125
G1 X129.44 Y165.492 E4.71119
G1 X129.136 Y165.566 E4.7216
G1 X127.946 Y165.837 E4.76219
G1 X126.854 Y166.062 E4.79928
G1 X126.36 Y166.153 E4.81598
G1 X125.512 Y166.299 E4.8446
G1 X124.444 Y166.465 E4.88055
G1 X124.006 Y166.523 E4.89525
G1 X123.117 Y166.632 E4.92504
G1 X122.06 Y166.744 E4.96039
G1 X121.567 Y166.786 E4.97685
G1 X120.693 Y166.849 E5.00599
G1 X119.625 Y166.909 E5.04157
G1 X119.173 Y166.925 E5.05661
G1 X118.295 Y166.945 E5.08582
G1 X117.188 Y166.954 E5.12264
G1 X116.726 Y166.947 E5.13801
G1 X115.848 Y166.924 E5.16722
G1 X114.745 Y166.878 E5.20394
G1 X114.338 Y166.852 E5.2175
G1 X113.462 Y166.786 E5.24672
G1 X112.345 Y166.685 E5.28403
G1 X111.913 Y166.637 E5.29848
G1 X110.987 Y166.522 E5.32952
G1 X109.891 Y166.367 E5.36633
G1 X109.548 Y166.31 E5.3779
G1 X108.648 Y166.153 E5.40828
G1 X107.56 Y165.946 E5.44512
G1 X107.056 Y165.838 E5.46226
G1 X106.317 Y165.67 E5.48747
G1 X105.171 Y165.393 E5.52668
G1 X104.673 Y165.26 E5.54383
G1 X103.941 Y165.056 E5.5691
G1 X103.085 Y164.807 E5.59875
G1 X102.777 Y164.712 E5.60947
G1 X101.649 Y164.343 E5.64895
G1 X100.524 Y163.95 E5.68858
G1 X100.088 Y163.786 E5.70408
G1 X99.377 Y163.511 E5.72943
G1 X98.239 Y163.05 E5.77027
G1 X97.858 Y162.885 E5.78408
G1 X97.073 Y162.536 E5.81265
G1 X96.065 Y162.068 E5.84962
G1 X95.676 Y161.877 E5.86403
G1 X94.924 Y161.498 E5.89204
G1 X93.878 Y160.949 E5.93133
G1 X93.554 Y160.77 E5.94364
G1 X92.798 Y160.341 E5.97255
G1 X91.8 Y159.752 E6.01109
G1 X91.365 Y159.483 E6.02811
G1 X90.709 Y159.066 E6.05396
G1 X89.76 Y158.443 E6.09172
G1 X89.347 Y158.158 E6.10841
G1 X88.68 Y157.686 E6.13558
G1 X87.979 Y157.178 E6.16438
G1 X87.702 Y156.97 E6.1759
G1 X86.745 Y156.224 E6.21626
G1 X85.918 Y155.558 E6.25157
G1 X85.482 Y155.19 E6.27055
G1 X84.905 Y154.689 E6.29597
G1 X84.016 Y153.894 E6.33563
G1 X83.107 Y153.033 E6.37728
G1 X82.319 Y152.257 E6.41406
G1 X81.961 Y151.888 E6.43116
G1 X81.468 Y151.369 E6.45497
G1 X80.768 Y150.614 E6.48921
G1 X80.541 Y150.36 E6.50054
G1 X79.802 Y149.506 E6.5381
G1 X79.043 Y148.594 E6.57757
G1 X78.787 Y148.272 E6.59125
G1 X78.251 Y147.583 E6.62028
G1 X77.58 Y146.692 E6.65738
G1 X77.331 Y146.345 E6.67159
G1 X76.861 Y145.676 E6.69878
G1 X76.192 Y144.693 E6.73833
G1 X75.932 Y144.29 E6.75428
G1 X75.516 Y143.63 E6.78023
G1 X74.915 Y142.647 E6.81855
G1 X74.681 Y142.242 E6.83411
G1 X74.28 Y141.532 E6.86123
G1 X73.856 Y140.76 E6.89052
G1 X73.699 Y140.463 E6.9017
G1 X73.148 Y139.374 E6.94229
G1 X72.652 Y138.344 E6.98031
G1 X72.46 Y137.92 E6.99579
G1 X72.14 Y137.196 E7.02212
G1 X71.683 Y136.115 E7.06116
G1 X71.215 Y134.916 E7.10396
G1 X70.833 Y133.869 E7.14103
G1 X70.674 Y133.405 E7.15735
G1 X70.431 Y132.664 E7.18328
G1 X70.074 Y131.519 E7.22317
G1 X69.736 Y130.31 E7.26493
G1 X69.508 Y129.439 E7.29487
G1 X69.434 Y129.135 E7.30528
G1 X69.165 Y127.956 E7.3455
G1 X68.939 Y126.868 E7.38246
G1 X68.84 Y126.331 E7.40062
G1 X68.701 Y125.514 E7.42819
G1 X68.535 Y124.444 E7.4642
G1 X68.477 Y124.006 E7.4789
G1 X68.368 Y123.119 E7.50862
G1 X68.256 Y122.059 E7.54407
G1 X68.214 Y121.567 E7.5605
G1 X68.151 Y120.692 E7.58967
G1 X68.09 Y119.6 E7.62605
G1 X68.075 Y119.158 E7.64076
G1 X68.055 Y118.295 E7.66947
G1 X68.046 Y117.19 E7.70622
G1 X68.053 Y116.718 E7.72192
G1 X68.076 Y115.846 E7.75094
G1 X68.123 Y114.734 E7.78796
G1 X68.154 Y114.259 E7.80379
G1 X68.213 Y113.465 E7.83027
G1 X68.316 Y112.33 E7.86817
G1 X68.365 Y111.9 E7.88257
G1 X68.478 Y110.987 E7.91317
G1 X68.633 Y109.891 E7.94998
G1 X68.69 Y109.548 E7.96155
G1 X68.847 Y108.648 E7.99193
G1 X69.054 Y107.56 E8.02877
G1 X69.162 Y107.056 E8.04591
G1 X69.33 Y106.317 E8.07112
G1 X69.607 Y105.171 E8.11033
G1 X69.74 Y104.673 E8.12748
G1 X69.944 Y103.941 E8.15275
G1 X70.193 Y103.085 E8.1824
G1 X70.288 Y102.777 E8.19312
G1 X70.657 Y101.649 E8.2326
G1 X71.05 Y100.524 E8.27223
G1 X71.214 Y100.088 E8.28773
G1 X71.489 Y99.377 E8.31308
G1 X71.95 Y98.239 E8.35392
G1 X72.115 Y97.858 E8.36773
G1 X72.464 Y97.073 E8.3963
G1 X72.932 Y96.065 E8.43326
G1 X73.123 Y95.676 E8.44768
G1 X73.502 Y94.924 E8.47569
G1 X74.058 Y93.865 E8.51547
G1 X74.249 Y93.52 E8.52858
G1 X74.66 Y92.795 E8.5563
G1 X75.248 Y91.8 E8.59474
G1 X75.517 Y91.365 E8.61176
G1 X75.932 Y90.712 E8.63749
G1 X76.559 Y89.756 E8.67551
G1 X77.315 Y88.679 E8.71928
G1 X78 Y87.74 E8.75794
G1 X78.244 Y87.423 E8.77124
G1 X78.776 Y86.745 E8.79991
G1 X79.441 Y85.92 E8.83515
G1 X79.81 Y85.482 E8.8542
G1 X80.311 Y84.905 E8.87962
G1 X81.106 Y84.016 E8.91928
G1 X81.966 Y83.108 E8.96088
G1 X82.743 Y82.319 E8.99771
G1 X83.112 Y81.961 E9.01481
G1 X83.631 Y81.468 E9.03862
G1 X84.385 Y80.769 E9.07281
G1 X84.638 Y80.542 E9.08412
G1 X85.493 Y79.803 E9.12171
G1 X86.382 Y79.062 E9.1602
G1 X86.722 Y78.791 E9.17466
G1 X87.417 Y78.251 E9.20393
G1 X88.308 Y77.58 E9.24103
G1 X88.658 Y77.329 E9.25536
G1 X89.32 Y76.863 E9.28228
G1 X90.31 Y76.19 E9.3221
G1 X90.718 Y75.927 E9.33824
G1 X91.37 Y75.516 E9.36388
G1 X92.353 Y74.915 E9.4022
G1 X92.758 Y74.681 E9.41776
G1 X93.477 Y74.275 E9.44522
G1 X94.464 Y73.737 E9.48261
G1 X94.883 Y73.521 E9.49829
G1 X95.626 Y73.148 E9.52594
G1 X96.656 Y72.652 E9.56396
G1 X97.801 Y72.142 E9.60565
G1 X98.885 Y71.683 E9.64481
G1 X99.317 Y71.512 E9.66026
G1 X100.068 Y71.223 E9.68702
G1 X101.148 Y70.827 E9.72528
G1 X101.594 Y70.675 E9.74095
G1 X102.333 Y70.432 E9.76683
G1 X103.488 Y70.072 E9.80707
G1 X104.69 Y69.736 E9.84858
G1 X105.818 Y69.445 E9.88732
G1 X107.044 Y69.166 E9.92914
G1 X108.14 Y68.939 E9.96637
G1 X108.649 Y68.845 E9.98358
G1 X109.488 Y68.701 E10.0119
G1 X110.556 Y68.535 E10.04785
G1 X110.994 Y68.477 E10.06254
G1 X111.875 Y68.369 E10.09206
G1 X112.974 Y68.253 E10.12882
G1 X113.438 Y68.215 E10.1443
G1 X114.315 Y68.151 E10.17355
G1 X115.399 Y68.089 E10.20966
G1 X115.791 Y68.076 E10.22271
G1 X116.704 Y68.055 E10.25308
G1 X117.812 Y68.046 E10.28994
G1 X118.167 Y68.051 E10.30174
G1 X119.154 Y68.076 E10.33458
G0 F6000 X119.169 Y67.676
G1 F1200 X120.281 Y67.723 E10.3716
G1 X120.691 Y67.749 E10.38527
G1 X121.572 Y67.815 E10.41465
G1 X122.704 Y67.917 E10.45245
G1 X123.137 Y67.966 E10.46695
G1 X124.064 Y68.081 E10.49801
G1 X125.174 Y68.238 E10.5353
G1 X126.428 Y68.454 E10.57762
G1 X127.517 Y68.662 E10.6145
G1 X128.032 Y68.772 E10.63201
G1 X128.776 Y68.941 E10.65739
G1 X129.931 Y69.221 E10.69692
G1 X130.435 Y69.354 E10.71425
G1 X131.174 Y69.561 E10.73978
G1 X132.029 Y69.81 E10.7694
G1 X132.349 Y69.909 E10.78054
G1 X133.474 Y70.277 E10.81991
G1 X134.626 Y70.679 E10.86049
G1 X135.056 Y70.84 E10.87576
G1 X135.772 Y71.118 E10.90131
G1 X136.935 Y71.59 E10.94305
G1 X138.09 Y72.1 E10.98505
G1 X139.099 Y72.567 E11.02203
G1 X139.504 Y72.765 E11.03702
G1 X140.261 Y73.147 E11.06522
G1 X141.29 Y73.687 E11.10387
G1 X142.393 Y74.308 E11.14597
G1 X143.424 Y74.916 E11.18578
G1 X143.843 Y75.176 E11.20219
G1 X144.469 Y75.574 E11.22686
G1 X145.518 Y76.262 E11.26858
G1 X146.554 Y76.99 E11.3107
G1 X147.473 Y77.66 E11.34852
G1 X147.806 Y77.915 E11.36247
G1 X148.498 Y78.457 E11.39171
G1 X149.175 Y78.999 E11.42055
G1 X149.455 Y79.232 E11.43267
G1 X150.364 Y80.014 E11.47255
G1 X151.222 Y80.78 E11.51081
G1 X151.573 Y81.108 E11.52678
G1 X152.166 Y81.674 E11.55405
G1 X152.969 Y82.465 E11.59154
G1 X153.327 Y82.833 E11.60862
G1 X153.907 Y83.444 E11.63664
G1 X154.654 Y84.257 E11.67336
G1 X154.928 Y84.568 E11.68714
G1 X155.508 Y85.241 E11.71669
G1 X156.236 Y86.115 E11.75452
G1 X156.506 Y86.453 E11.76891
G1 X157.067 Y87.175 E11.79932
G1 X157.745 Y88.075 E11.8368
G1 X157.996 Y88.424 E11.8511
G1 X158.47 Y89.098 E11.87851
G1 X159.144 Y90.09 E11.91839
G1 X159.815 Y91.143 E11.95992
G1 X160.431 Y92.152 E11.99924
G1 X160.673 Y92.572 E12.01537
G1 X161.07 Y93.275 E12.04222
G1 X161.62 Y94.284 E12.08044
G1 X161.823 Y94.677 E12.09515
G1 X162.212 Y95.452 E12.12399
G1 X162.71 Y96.486 E12.16216
G1 X162.883 Y96.868 E12.17611
G1 X163.227 Y97.647 E12.20444
G1 X163.691 Y98.741 E12.24396
G1 X163.839 Y99.114 E12.25731
G1 X164.16 Y99.949 E12.28706
G1 X164.54 Y100.984 E12.32373
G1 X164.949 Y102.209 E12.36669
G1 X165.417 Y103.739 E12.4199
G1 X165.651 Y104.591 E12.44929
G1 X165.94 Y105.707 E12.48763
G1 X166.042 Y106.143 E12.50252
G1 X166.228 Y106.971 E12.53075
G1 X166.45 Y108.047 E12.56729
G1 X166.538 Y108.523 E12.58339
G1 X166.692 Y109.416 E12.61353
G1 X166.859 Y110.483 E12.64945
G1 X166.918 Y110.922 E12.66418
G1 X167.029 Y111.83 E12.69461
G1 X167.145 Y112.925 E12.73123
G1 X167.181 Y113.367 E12.74598
G1 X167.248 Y114.292 E12.77683
G1 X167.31 Y115.382 E12.81314
G1 X167.324 Y115.779 E12.82635
G1 X167.345 Y116.699 E12.85696
G1 X167.354 Y117.821 E12.89428
G1 X167.347 Y118.274 E12.90935
G1 X167.324 Y119.168 E12.93909
G1 X167.277 Y120.277 E12.97601
G1 X167.251 Y120.691 E12.98981
G1 X167.185 Y121.573 E13.01923
G1 X167.083 Y122.703 E13.05696
G1 X167.034 Y123.133 E13.07136
G1 X166.918 Y124.067 E13.10266
G1 X166.762 Y125.174 E13.13984
G1 X166.546 Y126.426 E13.1821
G1 X166.336 Y127.528 E13.21941
G1 X166.233 Y128.011 E13.23584
G1 X166.059 Y128.776 E13.26193
G1 X165.774 Y129.95 E13.30211
G1 X165.646 Y130.429 E13.3186
G1 X165.439 Y131.173 E13.34429
G1 X165.19 Y132.028 E13.37391
G1 X165.091 Y132.348 E13.38505
G1 X164.723 Y133.473 E13.42442
G1 X164.325 Y134.615 E13.46464
G1 X164.16 Y135.056 E13.4803
G1 X163.882 Y135.772 E13.50585
G1 X163.425 Y136.9 E13.54633
G1 X163.249 Y137.309 E13.56114
G1 X162.899 Y138.094 E13.58973
G1 X162.428 Y139.11 E13.62697
G1 X162.238 Y139.497 E13.64131
G1 X161.853 Y140.261 E13.66977
G1 X161.3 Y141.315 E13.70935
G1 X161.121 Y141.638 E13.72164
G1 X160.685 Y142.407 E13.75104
G1 X160.093 Y143.41 E13.78978
G1 X159.821 Y143.848 E13.80692
G1 X159.403 Y144.507 E13.83288
G1 X158.769 Y145.473 E13.87131
G1 X158.006 Y146.561 E13.91551
G1 X157.34 Y147.473 E13.95307
G1 X157.085 Y147.806 E13.96702
G1 X156.536 Y148.506 E13.99661
G1 X155.807 Y149.407 E14.03516
G1 X154.984 Y150.365 E14.07716
G1 X154.209 Y151.233 E14.11587
G1 X153.898 Y151.566 E14.13102
G1 X153.339 Y152.152 E14.15796
G1 X152.516 Y152.988 E14.19698
G1 X152.21 Y153.286 E14.21118
G1 X151.585 Y153.879 E14.23984
G1 X150.415 Y154.944 E14.29246
G1 X149.764 Y155.503 E14.321
G1 X148.872 Y156.247 E14.35963
G1 X148.521 Y156.527 E14.37457
G1 X147.825 Y157.067 E14.40386
G1 X146.925 Y157.745 E14.44134
G1 X146.576 Y157.996 E14.45564
G1 X145.894 Y158.475 E14.48336
G1 X144.93 Y159.13 E14.52212
G1 X144.534 Y159.386 E14.53781
G1 X143.842 Y159.824 E14.56505
G1 X142.83 Y160.441 E14.60447
G1 X142.457 Y160.657 E14.6188
G1 X141.705 Y161.082 E14.64753
G1 X140.74 Y161.607 E14.68407
